X: 96
T:Craig-y-Bwlch
M:6/8
L:1/8
Q:130
R:Jig
S:Cadw Twmpath Collection
A:Wales
Z:brian_martin12345@yahoo.com
K:D
d|f2e dcB|A2G FAd|B2Ge2d|cBc"Fine"d2:||
d|d2f agf|b2a gfe|c2ea2e|^gfg"D.C." a2||
